X:1
T:But Not For Me
C:1930 - George Gershwin / Ira Gershwin
Z:www.realbook.site
L:1/4
M:4/4
I:linebreak $
K:Eb
V:1 treble nm=" " snm=" "
V:1
 F G F |:"F7" G2 F E- |"Fm7/Bb" E/ z/ F"Bb7" G F |"Ebmaj7" G4 | z F G F |$"F7" G2 F E- | %6
"Fm7/Bb" E/ z/ F"Bb7" G F |"Bbm7" G4 |"Eb7" z G A B |$"Abmaj7" =B2 c e |"Db7" z F G A | %11
"Eb" =A2 B e |1"Cm7" z E F G |$"Fm7" G2 A e | z e c A | F4 |"Bb7" z F G F :|2$"Cm7" z e c A | %18
"F7" G4 |"Bb7" F4 |"Eb" E4 | z4 |] %22

